assets/icons/24px/stroke/archive-24px.svg

<svg width="24" height="24" viewBox="0 0 24 24" fill="none" xmlns="http://www.w3.org/2000/svg">
<path fill-rule="evenodd" clip-rule="evenodd" d="M4 8C4.55229 8 5 8.44772 5 9V17C5 17.9711 5.00213 18.5988 5.06431 19.0613C5.12263 19.495 5.21677 19.631 5.2929 19.7071C5.36902 19.7832 5.50497 19.8774 5.93871 19.9357C6.40122 19.9979 7.02893 20 8 20H16C16.9711 20 17.5988 19.9979 18.0613 19.9357C18.495 19.8774 18.631 19.7832 18.7071 19.7071C18.7832 19.631 18.8774 19.495 18.9357 19.0613C18.9979 18.5988 19 17.9711 19 17V9C19 8.44772 19.4477 8 20 8C20.5523 8 21 8.44772 21 9L21 17.0658C21.0001 17.9523 21.0001 18.7161 20.9179 19.3278C20.8297 19.9833 20.631 20.6117 20.1213 21.1213C19.6117 21.631 18.9833 21.8297 18.3278 21.9179C17.7161 22.0001 16.9523 22.0001 16.0658 22H7.93417C7.04769 22.0001 6.28387 22.0001 5.67221 21.9179C5.0167 21.8297 4.38835 21.631 3.87868 21.1213C3.36902 20.6117 3.17028 19.9833 3.08215 19.3278C2.99991 18.7161 2.99995 17.9523 3 17.0658L3 9C3 8.44772 3.44772 8 4 8Z" fill="white"/>
<path fill-rule="evenodd" clip-rule="evenodd" d="M5.96801 2L18.032 2C18.4706 1.99999 18.8491 1.99998 19.1624 2.02135C19.4922 2.04386 19.8221 2.09336 20.1481 2.22836C20.8831 2.53285 21.4672 3.11687 21.7716 3.85195C21.9066 4.17788 21.9561 4.50779 21.9787 4.83762C22 5.15088 22 5.52936 22 5.96801V6.03199C22 6.47064 22 6.84913 21.9787 7.16238C21.9561 7.49221 21.9066 7.82212 21.7716 8.14805C21.4672 8.88313 20.8831 9.46716 20.1481 9.77164C19.8221 9.90664 19.4922 9.95615 19.1624 9.97865C18.8491 10 18.4706 10 18.032 10L5.96801 10C5.52936 10 5.15088 10 4.83762 9.97865C4.50779 9.95615 4.17788 9.90664 3.85195 9.77164C3.11687 9.46716 2.53284 8.88313 2.22836 8.14805C2.09336 7.82212 2.04386 7.49221 2.02135 7.16238C1.99998 6.84912 1.99999 6.47063 2 6.03198V5.96802C1.99999 5.52937 1.99998 5.15088 2.02135 4.83762C2.04386 4.50779 2.09336 4.17788 2.22836 3.85195C2.53284 3.11687 3.11687 2.53284 3.85195 2.22836C4.17788 2.09336 4.50779 2.04386 4.83762 2.02135C5.15088 1.99998 5.52936 1.99999 5.96801 2ZM4.97376 4.01671C4.74576 4.03227 4.65893 4.05888 4.61732 4.07612C4.37229 4.17762 4.17762 4.37229 4.07612 4.61732C4.05888 4.65893 4.03227 4.74576 4.01671 4.97376C4.00054 5.21074 4 5.52038 4 6C4 6.47962 4.00054 6.78926 4.01671 7.02624C4.03227 7.25424 4.05888 7.34107 4.07612 7.38268C4.17762 7.62771 4.37229 7.82239 4.61732 7.92388C4.65893 7.94112 4.74576 7.96773 4.97376 7.98329C5.21074 7.99946 5.52038 8 6 8L18 8C18.4796 8 18.7893 7.99946 19.0262 7.98329C19.2542 7.96773 19.3411 7.94112 19.3827 7.92388C19.6277 7.82239 19.8224 7.62771 19.9239 7.38268C19.9411 7.34107 19.9677 7.25424 19.9833 7.02624C19.9995 6.78926 20 6.47962 20 6C20 5.52038 19.9995 5.21074 19.9833 4.97376C19.9677 4.74576 19.9411 4.65893 19.9239 4.61732C19.8224 4.37229 19.6277 4.17762 19.3827 4.07612C19.3411 4.05889 19.2542 4.03227 19.0262 4.01671C18.7893 4.00054 18.4796 4 18 4L6 4C5.52038 4 5.21074 4.00054 4.97376 4.01671Z" fill="white"/>
<path fill-rule="evenodd" clip-rule="evenodd" d="M8 13C8 12.4477 8.44772 12 9 12L15 12C15.5523 12 16 12.4477 16 13C16 13.5523 15.5523 14 15 14L9 14C8.44772 14 8 13.5523 8 13Z" fill="white"/>
</svg>

<svg width="24" height="24" fill="none" xmlns="http://www.w3.org/2000/svg"><path fill-rule="evenodd" clip-rule="evenodd" d="M4 8a1 1 0 0 1 1 1v8c0 .971.002 1.599.064 2.061.059.434.153.57.229.646.076.076.212.17.646.229C6.4 19.998 7.029 20 8 20h8c.971 0 1.599-.002 2.061-.064.434-.059.57-.153.646-.229.076-.076.17-.212.229-.646.062-.462.064-1.09.064-2.061V9a1 1 0 1 1 2 0v8.066c0 .886 0 1.65-.082 2.262-.088.655-.287 1.284-.797 1.793-.51.51-1.138.709-1.793.797-.612.082-1.376.082-2.262.082H7.934c-.886 0-1.65 0-2.262-.082-.655-.088-1.284-.287-1.793-.797-.51-.51-.709-1.138-.797-1.793C3 18.716 3 17.952 3 17.066V9a1 1 0 0 1 1-1z" fill="#fff"/><path fill-rule="evenodd" clip-rule="evenodd" d="M5.968 2h12.064c.439 0 .817 0 1.13.021.33.023.66.072.986.207a3 3 0 0 1 1.624 1.624c.135.326.184.656.207.986.021.313.021.691.021 1.13v.064c0 .439 0 .817-.021 1.13-.023.33-.072.66-.207.986a3 3 0 0 1-1.624 1.624 3.07 3.07 0 0 1-.986.207c-.313.021-.691.021-1.13.021H5.968c-.439 0-.817 0-1.13-.021a3.07 3.07 0 0 1-.986-.207 3 3 0 0 1-1.624-1.624 3.07 3.07 0 0 1-.207-.986C2 6.85 2 6.471 2 6.032v-.064c0-.439 0-.817.021-1.13.023-.33.072-.66.207-.986a3 3 0 0 1 1.624-1.624 3.07 3.07 0 0 1 .986-.207C5.15 2 5.529 2 5.968 2zm-.994 2.017c-.228.015-.315.042-.357.06a1 1 0 0 0-.54.54c-.018.042-.045.129-.06.357C4 5.21 4 5.52 4 6s0 .79.017 1.026c.015.228.042.315.06.357a1 1 0 0 0 .54.54c.042.018.129.045.357.06C5.21 8 5.52 8 6 8h12c.48 0 .79 0 1.026-.017.228-.015.315-.042.357-.06a1 1 0 0 0 .54-.54c.018-.042.045-.129.06-.357C20 6.79 20 6.48 20 6s0-.79-.017-1.026c-.015-.228-.042-.315-.06-.357a1 1 0 0 0-.54-.54c-.042-.018-.129-.045-.357-.06A16.908 16.908 0 0 0 18 4H6c-.48 0-.79 0-1.026.017zM8 13a1 1 0 0 1 1-1h6a1 1 0 1 1 0 2H9a1 1 0 0 1-1-1z" fill="#fff"/></svg>
